logos/kafka.svg

<svg width="280" height="280" viewBox="0 0 280 280" fill="none" xmlns="http://www.w3.org/2000/svg">
<rect width="280" height="280" fill="white"/>
<path d="M113.624 24.8467C112.067 23.2491 110.205 21.9805 108.148 21.1161C106.091 20.2516 103.882 19.8089 101.651 19.8142C99.4291 19.805 97.2283 20.2462 95.1817 21.1111C93.135 21.9761 91.2848 23.2468 89.7429 24.8467H89.6645C86.5123 28.1058 84.7502 32.4624 84.7502 36.9965C84.7502 41.5306 86.5123 45.8873 89.6645 49.1464L89.7429 49.2379C91.2922 50.8235 93.1452 52.0806 95.1912 52.934C97.2372 53.7874 99.4342 54.2197 101.651 54.205C103.877 54.2159 106.083 53.7821 108.139 52.9292C110.195 52.0762 112.06 50.8213 113.624 49.2379V49.1464C116.777 45.8873 118.539 41.5306 118.539 36.9965C118.539 32.4624 116.777 28.1058 113.624 24.8467ZM101.651 260.249C103.878 260.247 106.083 259.804 108.139 258.944C110.194 258.085 112.058 256.827 113.624 255.243V255.152C116.803 251.928 118.571 247.574 118.539 243.047C118.569 238.498 116.802 234.12 113.624 230.865C112.073 229.258 110.212 227.983 108.154 227.116C106.097 226.249 103.884 225.808 101.651 225.819C99.427 225.804 97.2234 226.244 95.1756 227.112C93.1278 227.979 91.279 229.257 89.7429 230.865H89.6645C86.4924 234.124 84.7274 238.499 84.7497 243.047C84.715 247.586 86.4826 251.954 89.6645 255.191L89.7429 255.282C91.2939 256.868 93.1463 258.128 95.1913 258.988C97.2363 259.848 99.4326 260.29 101.651 260.289V260.249ZM193.713 208.134C195.877 207.561 197.905 206.559 199.674 205.186C201.443 203.814 202.919 202.101 204.013 200.147L204.314 199.533C206.303 195.693 206.77 191.245 205.621 187.076C205.069 184.901 204.091 182.858 202.745 181.063C201.399 179.268 199.711 177.758 197.778 176.619L197.53 176.462C193.641 174.295 189.051 173.759 184.767 174.972C180.484 176.185 176.856 179.048 174.681 182.932C172.425 186.881 171.807 191.557 172.961 195.956C174.114 200.356 176.947 204.127 180.851 206.461C182.772 207.578 184.896 208.302 187.1 208.589C189.304 208.876 191.543 208.721 193.687 208.134H193.713ZM118.984 122.399C116.732 120.083 114.04 118.242 111.065 116.986C108.09 115.729 104.893 115.081 101.664 115.081C98.4346 115.081 95.2379 115.729 92.2631 116.986C89.2883 118.242 86.5956 120.083 84.3444 122.399C79.7413 127.094 77.1766 133.417 77.2075 139.993C77.1883 146.589 79.7497 152.932 84.3444 157.665C86.6039 159.966 89.2992 161.794 92.2729 163.041C95.2467 164.289 98.4392 164.932 101.664 164.932C104.889 164.932 108.081 164.289 111.055 163.041C114.029 161.794 116.724 159.966 118.984 157.665C123.578 152.932 126.14 146.589 126.121 139.993C126.151 133.417 123.587 127.094 118.984 122.399ZM109.232 93.1055C118.909 94.7406 127.811 99.4205 134.643 106.464C135.737 107.572 136.771 108.737 137.741 109.955L154.616 100.02C152.009 91.9655 152.214 83.264 155.199 75.3414C158.185 67.4188 163.772 60.7452 171.047 56.4141L171.335 56.2311C175.43 53.8509 179.958 52.3096 184.655 51.697C189.352 51.0843 194.124 51.4126 198.693 52.6626C203.346 53.9405 207.7 56.128 211.503 59.0985C215.306 62.069 218.482 65.7637 220.849 69.9691C225.682 78.5035 226.99 88.5876 224.496 98.0726C223.286 102.761 221.162 107.163 218.246 111.028C215.33 114.893 211.679 118.144 207.503 120.595L205.203 121.98H204.967C197.867 125.414 189.836 126.425 182.106 124.857C174.376 123.289 167.373 119.23 162.172 113.301L145.323 123.209C147.318 128.575 148.336 134.255 148.329 139.98C148.33 145.729 147.312 151.434 145.323 156.829L162.172 166.697C166.841 161.362 172.986 157.528 179.831 155.678C184.456 154.396 189.292 154.065 194.049 154.705C198.805 155.345 203.382 156.944 207.503 159.404L208.065 159.678C216.206 164.685 222.094 172.648 224.496 181.899C226.987 191.38 225.678 201.459 220.849 209.99L220.535 210.604C215.713 218.801 207.904 224.812 198.745 227.375C194.117 228.622 189.287 228.936 184.536 228.299C179.786 227.661 175.209 226.085 171.073 223.663C163.806 219.323 158.228 212.643 155.255 204.718C152.281 196.793 152.088 188.092 154.708 180.043L137.833 170.135C136.859 171.333 135.825 172.481 134.735 173.573C127.899 180.599 118.994 185.252 109.324 186.854V206.696C116.246 208.184 122.575 211.68 127.519 216.748C134.35 223.735 138.175 233.119 138.175 242.891C138.175 252.662 134.35 262.046 127.519 269.033V269.138C124.167 272.576 120.16 275.308 115.735 277.174C111.311 279.039 106.557 280 101.756 280C96.9536 280 92.2003 279.039 87.7756 277.174C83.3509 275.308 79.3443 272.576 75.9918 269.138V269.033C69.1608 262.046 65.3361 252.662 65.3361 242.891C65.3361 233.119 69.1608 223.735 75.9918 216.748C80.9354 211.686 87.2586 208.19 94.1741 206.696V186.906C84.4784 185.323 75.5476 180.668 68.698 173.625C59.9177 164.664 55 152.617 55 140.071C55 127.525 59.9177 115.479 68.698 106.517C75.5137 99.4548 84.4079 94.7558 94.0826 93.1055V73.3416C87.1792 71.7997 80.8664 68.3007 75.9003 63.2635C69.0534 56.2633 65.2195 46.8605 65.2195 37.0684C65.2195 27.2764 69.0534 17.8736 75.9003 10.8734C79.2509 7.43223 83.2569 4.6972 87.6819 2.82968C92.1069 0.962159 96.8611 0 101.664 0C106.467 0 111.221 0.962159 115.646 2.82968C120.071 4.6972 124.077 7.43223 127.428 10.8734C134.275 17.8736 138.109 27.2764 138.109 37.0684C138.109 46.8605 134.275 56.2633 127.428 63.2635C122.461 68.3065 116.142 71.8063 109.232 73.3416V93.1055ZM204.013 79.9295L203.869 79.7073C201.639 75.8661 197.993 73.0509 193.713 71.8645C191.563 71.2746 189.317 71.1222 187.108 71.4164C184.899 71.7105 182.771 72.4452 180.851 73.5768C178.906 74.7093 177.205 76.2169 175.847 78.012C174.49 79.8071 173.502 81.8541 172.942 84.034C171.785 88.4476 172.399 93.1388 174.655 97.1054L174.72 97.2099C175.817 99.1283 177.285 100.81 179.037 102.156C180.79 103.502 182.792 104.487 184.929 105.053C187.068 105.663 189.31 105.828 191.515 105.538C193.721 105.248 195.843 104.509 197.752 103.367L197.961 103.262C201.763 100.947 204.514 97.2436 205.634 92.9356C206.807 88.5301 206.216 83.8409 203.987 79.8642" fill="#231F20"/>
</svg>

<svg xmlns="http://www.w3.org/2000/svg" width="280" height="280" fill="none"><path fill="#231F20" d="M113.624 24.847a16.66 16.66 0 0 0-11.973-5.033 16.44 16.44 0 0 0-11.908 5.033h-.078a17.476 17.476 0 0 0 0 24.3l.078.09a16.5 16.5 0 0 0 11.908 4.968 16.72 16.72 0 0 0 11.973-4.967v-.092a17.473 17.473 0 0 0 0-24.3m-11.973 235.402a16.85 16.85 0 0 0 11.973-5.006v-.091a17.07 17.07 0 0 0 4.915-12.105 17.28 17.28 0 0 0-4.915-12.182 16.54 16.54 0 0 0-11.973-5.046 16.3 16.3 0 0 0-11.908 5.046h-.078a17.34 17.34 0 0 0-4.915 12.182 17.14 17.14 0 0 0 4.915 12.144l.078.091a16.65 16.65 0 0 0 11.908 5.007zm92.062-52.115a16.7 16.7 0 0 0 10.3-7.987l.301-.614a17.17 17.17 0 0 0 1.307-12.457 17 17 0 0 0-7.843-10.457l-.248-.157a16.81 16.81 0 0 0-22.849 6.47 17.37 17.37 0 0 0 6.17 23.529 16.73 16.73 0 0 0 12.836 1.673zm-74.729-85.735a24.156 24.156 0 0 0-34.64 0 24.96 24.96 0 0 0-7.136 17.594 25.27 25.27 0 0 0 7.136 17.672 24.27 24.27 0 0 0 34.64 0 25.27 25.27 0 0 0 7.137-17.672 24.97 24.97 0 0 0-7.137-17.594m-9.752-29.293a46.1 46.1 0 0 1 25.411 13.358 44 44 0 0 1 3.098 3.491l16.875-9.935a37.36 37.36 0 0 1 16.431-43.606l.288-.183a35.7 35.7 0 0 1 27.358-3.568 36.52 36.52 0 0 1 22.156 17.306 37.62 37.62 0 0 1 3.647 28.104 36.76 36.76 0 0 1-16.993 22.522l-2.3 1.385h-.236a36.05 36.05 0 0 1-42.795-8.679l-16.849 9.908a48 48 0 0 1 3.006 16.771 48.7 48.7 0 0 1-3.006 16.849l16.849 9.868a35.9 35.9 0 0 1 17.659-11.019 35.48 35.48 0 0 1 27.672 3.726l.562.274a37 37 0 0 1 16.431 22.221 37.62 37.62 0 0 1-3.647 28.091l-.314.614a36.78 36.78 0 0 1-21.79 16.771 36.15 36.15 0 0 1-27.672-3.712 37.346 37.346 0 0 1-16.365-43.62l-16.875-9.908a46 46 0 0 1-3.098 3.438 45.93 45.93 0 0 1-25.411 13.281v19.842a36 36 0 0 1 18.195 10.052 37.397 37.397 0 0 1 0 52.285v.105a35.986 35.986 0 0 1-51.527 0v-.105a37.396 37.396 0 0 1 0-52.285 36.06 36.06 0 0 1 18.182-10.052v-19.79a45.84 45.84 0 0 1-25.476-13.281 47.944 47.944 0 0 1 0-67.108 46.04 46.04 0 0 1 25.385-13.411V73.342A36.8 36.8 0 0 1 75.9 63.264a37.46 37.46 0 0 1 0-52.39 35.96 35.96 0 0 1 51.528 0 37.46 37.46 0 0 1 0 52.39 36.7 36.7 0 0 1-18.196 10.078zm94.781-13.176-.144-.223a17 17 0 0 0-10.156-7.842 16.65 16.65 0 0 0-12.862 1.712 17 17 0 0 0-7.909 10.457 17.48 17.48 0 0 0 1.713 13.071l.065.105a16.68 16.68 0 0 0 10.209 7.843 16.28 16.28 0 0 0 12.823-1.686l.209-.105a17.14 17.14 0 0 0 7.673-10.326 17.52 17.52 0 0 0-1.647-13.072"/></svg>
